X:49
T:Don't you go a rushing - Hard
%%VWML:SBG-1-2-7-0
F:http://www.vwml.org/record/SBG/1/2/7
Z:Original Sibelius transcriptions by M. & S. Graebe
M:4/4
I:linebreak $
K:F
V:1 treble nm="P1"
V:1
 F2 F F F2 A2 | F2 F2 F4 | A2 A A A A2 c2 | B2 G2 G4 |$ F2 F F F2 A F | B B B B B2 d2 | %6
 AB c A G2 c B | (A2 F) F F4 | %8
T:Don't you go a rushing - Chappell
F:http://www.vwml.org/record/SBG/1/2/7
Z:Original Sibelius transcriptions by M. & S. Graebe
M:4/4
I:linebreak $
K:Bb
V:1 treble nm="P1"
V:1
 GABc d2 G2 | G2 ^F2 G4 | Bcde f2 B2 | B2 A2 B4 | Bcde f2 d2 | cBAG ^F2 D2 |$ GABc d2 G2 | %7
 G2 ^F2 G4 | d2 d2 d2 ef | g2 g2 f4 | c2 c2 c2 de |$ fedc d4 | dDDD F3 F | GABc A2 D2 | %14
 GABc A2 G2 | G2 ^F2 G4 | %16
T:Don't you go a rushing - Miss Mason
F:http://www.vwml.org/record/SBG/1/2/7
Z:Original Sibelius transcriptions by M. & S. Graebe
M:4/4
I:linebreak $
K:D
V:1 treble nm="P1"
V:1
 C2 | D C D E F A2 G | F2 E2 D3 C | DC D F A2 G | F2 E2 D2 z A | d2 d d c A2 F |$ GF G B A3 F | %7
 DC D E F A2 G | F2 E2 D2 z C | D3/2 C/ D3/2 E/ F A2 z | F2 E2 D2 x2 | D3/2 C/ D3/2 E/ F A2 z |$ %12
 F2 E2 D2 z A | d3/2 d/ d3/2 d/ c A2 F | G3/2 F/ G B A A z F | D3/2 C/ D3/2 E/ F A2 G | %16
 F2 E2 D2 z x | %17
T:Don't you go a rushing - from the same - Miss Mason
F:http://www.vwml.org/record/SBG/1/2/7
Z:Original Sibelius transcriptions by M. & S. Graebe
M:2/4
I:linebreak $
K:E
V:1 treble nm="P1"
V:1
 B, | E E G G | F F/ F/ E2 | E/ D/ E/ F/ G G | F F E3/2 E/ | E E/ E/ G G | F F E2 |$ %7
 E/ D/ E/ F/ G G | F F E2 | e E E E | E E/ E/ E E | E/ D/ E/ F/ G G | F F E x | %13
T:Don't you go a rushing - Barrett
F:http://www.vwml.org/record/SBG/1/2/7
Z:Original Sibelius transcriptions by M. & S. Graebe
M:4/4
I:linebreak $
K:G
V:1 treble nm="P1"
V:1
 E F G A B2 E2 | E2 ^D2 E4 | GABc d2 G3 | G2 F2 G4 | GABc d B2 | A G F E ^D2 B,2 |$ %6
 E F G A B2 E3/2 E/ | E2 ^D2 E4 | B B B B B2 c d | e2 e e d3 | d | A A A A A2 B c |$ dc B A B4 | %13
 B B B B ^D2 | EF G A !fermata!F2 B,>B, | E F G A F2 E2 | E2 ^D2 E4 | %17
T:Don't you go a rushing - Helmore
F:http://www.vwml.org/record/SBG/1/2/7
Z:Original Sibelius transcriptions by M. & S. Graebe
M:4/4
I:linebreak $
K:C
V:1 treble nm="P1"
V:1
 G3 G G2 G2 G2 B6 | G4 G4 G4 z4 | B3 B B2 B2 B2 d6 | d4 A4 A4 z4 |$ G3 G G2 G2 G2 d6 | %5
 G3 G G2 G2 c2 e6 | B3 c d3 c B2 d4 c2 | B4 G3 G G4 x4 | %8
T:Don't you go a rushing - Nichols
F:http://www.vwml.org/record/SBG/1/2/7
Z:Original Sibelius transcriptions by M. & S. Graebe
M:3/8
I:linebreak $
K:C
V:1 treble nm="P1"
V:1
 G | ccd | Bcd | eef | d2 g | ccA | cdG | cAB | Gef |$ gge | fef | ggc | d2 d | ccc | d/e/fd | %15
 BGG | BGG | c2 z | %18

